rospo-light/16x16/devices/network-vpn.svg

<svg height="22" viewBox="0 0 16 16" width="22" xmlns="http://www.w3.org/2000/svg"><path d="m8 2.1818182c-1.8418701 0-3.3246753 1.5140571-3.3246753 3.3766233v1.6103897h-.8311689c-.4604675 0-.8311688.3707012-.8311688.8311688v4.987013c0 .460468.3707013.831169.8311688.831169h8.3116882c.460468 0 .831169-.370701.831169-.831169v-4.987013c0-.4604676-.370701-.8311688-.831169-.8311688h-.831169v-1.6103897c0-1.8618181-1.4828049-3.3766233-3.324675-3.3766233zm0 1.6623376c.9209351 0 1.6623376.7414026 1.6623376 1.6623377v1.6623377h-3.3246753v-1.6623377c0-.9209351.7414026-1.6623377 1.6623377-1.6623377z" fill="#5c616c" stroke-width=".831169"/></svg>

<?xml version="1.0" encoding="UTF-8" standalone="no"?>
<svg
   xmlns:dc="http://purl.org/dc/elements/1.1/"
   xmlns:cc="http://creativecommons.org/ns#"
   xmlns:rdf="http://www.w3.org/1999/02/22-rdf-syntax-ns#"
   xmlns:svg="http://www.w3.org/2000/svg"
   xmlns="http://www.w3.org/2000/svg"
   xmlns:sodipodi="http://sodipodi.sourceforge.net/DTD/sodipodi-0.dtd"
   xmlns:inkscape="http://www.inkscape.org/namespaces/inkscape"
   width="22"
   height="22"
   viewBox="0 0 16 16"
   version="1.1"
   id="svg7"
   sodipodi:docname="network-vpn.svg"
   inkscape:version="0.92.1 r">
  <metadata
     id="metadata11">
    <rdf:RDF>
      <cc:Work
         rdf:about="">
        <dc:format>image/svg+xml</dc:format>
        <dc:type
           rdf:resource="http://purl.org/dc/dcmitype/StillImage" />
      </cc:Work>
    </rdf:RDF>
  </metadata>
  <sodipodi:namedview
     pagecolor="#ffffff"
     bordercolor="#666666"
     borderopacity="1"
     objecttolerance="10"
     gridtolerance="10"
     guidetolerance="10"
     inkscape:pageopacity="0"
     inkscape:pageshadow="2"
     inkscape:window-width="769"
     inkscape:window-height="480"
     id="namedview9"
     showgrid="false"
     inkscape:zoom="10.727273"
     inkscape:cx="11"
     inkscape:cy="11"
     inkscape:window-x="0"
     inkscape:window-y="0"
     inkscape:window-maximized="0"
     inkscape:current-layer="svg7" />
  <defs
     id="defs3">
    <style
       id="current-color-scheme"
       type="text/css">
   .ColorScheme-Text { color:#5c616c; } .ColorScheme-Highlight { color:#5294e2; }
  </style>
  </defs>
  <path
     style="color:#5c616c;fill:currentColor;stroke-width:0.83116883"
     class="ColorScheme-Text"
     d="m 8,2.1818182 c -1.8418701,0 -3.3246753,1.5140571 -3.3246753,3.3766233 V 7.1688312 H 3.8441558 C 3.3836883,7.1688312 3.012987,7.5395324 3.012987,8 v 4.987013 c 0,0.460468 0.3707013,0.831169 0.8311688,0.831169 h 8.3116882 c 0.460468,0 0.831169,-0.370701 0.831169,-0.831169 V 8 c 0,-0.4604676 -0.370701,-0.8311688 -0.831169,-0.8311688 H 11.324675 V 5.5584415 C 11.324675,3.6966234 9.8418701,2.1818182 8,2.1818182 Z m 0,1.6623376 c 0.9209351,0 1.6623376,0.7414026 1.6623376,1.6623377 V 7.1688312 H 6.3376623 V 5.5064935 C 6.3376623,4.5855584 7.0790649,3.8441558 8,3.8441558 Z"
     id="path5"
     inkscape:connector-curvature="0" />
</svg>
